images/47265.svg

<?xml version="1.0" encoding="UTF-8"?>
<svg xmlns="http://www.w3.org/2000/svg" xmlns:xlink="http://www.w3.org/1999/xlink" width="300pt" height="300pt" viewBox="0 0 300 300" version="1.1">
<defs>
<g>
<symbol overflow="visible" id="glyph0-0">
<path style="stroke:none;" d="M 0.453125 1.59375 L 0.453125 -6.34375 L 4.953125 -6.34375 L 4.953125 1.59375 Z M 0.953125 1.09375 L 4.453125 1.09375 L 4.453125 -5.84375 L 0.953125 -5.84375 Z M 0.953125 1.09375 "/>
</symbol>
<symbol overflow="visible" id="glyph0-1">
<path style="stroke:none;" d="M 3.546875 -5.953125 C 2.898438 -5.953125 2.382812 -5.710938 2 -5.234375 C 1.625 -4.753906 1.4375 -4.101562 1.4375 -3.28125 C 1.4375 -2.445312 1.625 -1.789062 2 -1.3125 C 2.382812 -0.832031 2.898438 -0.59375 3.546875 -0.59375 C 4.191406 -0.59375 4.703125 -0.832031 5.078125 -1.3125 C 5.453125 -1.789062 5.640625 -2.445312 5.640625 -3.28125 C 5.640625 -4.101562 5.453125 -4.753906 5.078125 -5.234375 C 4.703125 -5.710938 4.191406 -5.953125 3.546875 -5.953125 Z M 3.546875 -6.6875 C 4.460938 -6.6875 5.195312 -6.375 5.75 -5.75 C 6.300781 -5.132812 6.578125 -4.3125 6.578125 -3.28125 C 6.578125 -2.238281 6.300781 -1.410156 5.75 -0.796875 C 5.195312 -0.179688 4.460938 0.125 3.546875 0.125 C 2.617188 0.125 1.878906 -0.179688 1.328125 -0.796875 C 0.773438 -1.410156 0.5 -2.238281 0.5 -3.28125 C 0.5 -4.3125 0.773438 -5.132812 1.328125 -5.75 C 1.878906 -6.375 2.617188 -6.6875 3.546875 -6.6875 Z M 3.546875 -6.6875 "/>
</symbol>
<symbol overflow="visible" id="glyph0-2">
<path style="stroke:none;" d="M 0.890625 -6.5625 L 2.078125 -6.5625 L 4.984375 -1.078125 L 4.984375 -6.5625 L 5.84375 -6.5625 L 5.84375 0 L 4.65625 0 L 1.75 -5.484375 L 1.75 0 L 0.890625 0 Z M 0.890625 -6.5625 "/>
</symbol>
<symbol overflow="visible" id="glyph0-3">
<path style="stroke:none;" d="M 0.890625 -6.5625 L 1.765625 -6.5625 L 1.765625 -3.875 L 5 -3.875 L 5 -6.5625 L 5.890625 -6.5625 L 5.890625 0 L 5 0 L 5 -3.125 L 1.765625 -3.125 L 1.765625 0 L 0.890625 0 Z M 0.890625 -6.5625 "/>
</symbol>
</g>
</defs>
<g id="surface25237">
<rect x="0" y="0" width="300" height="300" style="fill:rgb(100%,100%,100%);fill-opacity:1;stroke:none;"/>
<path style="fill:none;stroke-width:1.2;stroke-linecap:butt;stroke-linejoin:miter;stroke:rgb(100%,0%,0%);stroke-opacity:1;stroke-miterlimit:10;" d="M 72.117188 178.347656 L 68.625 167.503906 "/>
<path style="fill:none;stroke-width:1.2;stroke-linecap:butt;stroke-linejoin:miter;stroke:rgb(0%,0%,0%);stroke-opacity:1;stroke-miterlimit:10;" d="M 68.625 167.503906 L 65.136719 156.660156 "/>
<path style="fill:none;stroke-width:1.2;stroke-linecap:butt;stroke-linejoin:miter;stroke:rgb(0%,0%,0%);stroke-opacity:1;stroke-miterlimit:10;" d="M 53.644531 191.6875 L 62.878906 185.019531 "/>
<path style="fill:none;stroke-width:1.2;stroke-linecap:butt;stroke-linejoin:miter;stroke:rgb(100%,0%,0%);stroke-opacity:1;stroke-miterlimit:10;" d="M 62.878906 185.019531 L 72.117188 178.347656 "/>
<path style=" stroke:none;fill-rule:nonzero;fill:rgb(100%,100%,100%);fill-opacity:1;" d="M 68.117188 172.847656 L 76.117188 172.847656 L 76.117188 183.847656 L 68.117188 183.847656 Z M 68.117188 172.847656 "/>
<g style="fill:rgb(100%,0%,0%);fill-opacity:1;">
  <use xlink:href="#glyph0-1" x="68.117188" y="181.510742"/>
</g>
<path style="fill:none;stroke-width:1.2;stroke-linecap:butt;stroke-linejoin:miter;stroke:rgb(0%,0%,0%);stroke-opacity:1;stroke-miterlimit:10;" d="M 65.136719 156.660156 L 53.746094 156.625 "/>
<path style="fill:none;stroke-width:1.2;stroke-linecap:butt;stroke-linejoin:miter;stroke:rgb(0%,0%,100%);stroke-opacity:1;stroke-miterlimit:10;" d="M 53.746094 156.625 L 42.351562 156.59375 "/>
<path style="fill:none;stroke-width:1.2;stroke-linecap:butt;stroke-linejoin:miter;stroke:rgb(0%,0%,0%);stroke-opacity:1;stroke-miterlimit:10;" d="M 62.84375 162.015625 L 53.730469 161.988281 "/>
<path style="fill:none;stroke-width:1.2;stroke-linecap:butt;stroke-linejoin:miter;stroke:rgb(0%,0%,100%);stroke-opacity:1;stroke-miterlimit:10;" d="M 53.730469 161.988281 L 44.617188 161.960938 "/>
<path style="fill:none;stroke-width:1.2;stroke-linecap:butt;stroke-linejoin:miter;stroke:rgb(0%,0%,0%);stroke-opacity:1;stroke-miterlimit:10;" d="M 65.136719 156.660156 L 78.582031 138.265625 "/>
<path style="fill:none;stroke-width:1.2;stroke-linecap:butt;stroke-linejoin:miter;stroke:rgb(0%,0%,100%);stroke-opacity:1;stroke-miterlimit:10;" d="M 42.351562 156.59375 L 35.25 178.242188 "/>
<path style=" stroke:none;fill-rule:nonzero;fill:rgb(100%,100%,100%);fill-opacity:1;" d="M 39.351562 151.09375 L 46.351562 151.09375 L 46.351562 162.09375 L 39.351562 162.09375 Z M 39.351562 151.09375 "/>
<g style="fill:rgb(0%,0%,100%);fill-opacity:1;">
  <use xlink:href="#glyph0-2" x="39.351562" y="159.756836"/>
</g>
<path style="fill:none;stroke-width:1.2;stroke-linecap:butt;stroke-linejoin:miter;stroke:rgb(0%,0%,100%);stroke-opacity:1;stroke-miterlimit:10;" d="M 35.25 178.242188 L 44.445312 184.964844 "/>
<path style="fill:none;stroke-width:1.2;stroke-linecap:butt;stroke-linejoin:miter;stroke:rgb(0%,0%,0%);stroke-opacity:1;stroke-miterlimit:10;" d="M 44.445312 184.964844 L 53.644531 191.6875 "/>
<path style="fill:none;stroke-width:1.2;stroke-linecap:butt;stroke-linejoin:miter;stroke:rgb(0%,0%,100%);stroke-opacity:1;stroke-miterlimit:10;" d="M 40.253906 175.257812 L 47.609375 180.636719 "/>
<path style="fill:none;stroke-width:1.2;stroke-linecap:butt;stroke-linejoin:miter;stroke:rgb(0%,0%,0%);stroke-opacity:1;stroke-miterlimit:10;" d="M 47.609375 180.636719 L 54.96875 186.015625 "/>
<path style=" stroke:none;fill-rule:nonzero;fill:rgb(100%,100%,100%);fill-opacity:1;" d="M 32.25 172.742188 L 39.25 172.742188 L 39.25 183.742188 L 32.25 183.742188 Z M 32.25 172.742188 "/>
<g style="fill:rgb(0%,0%,100%);fill-opacity:1;">
  <use xlink:href="#glyph0-2" x="32.25" y="181.405273"/>
</g>
<path style="fill:none;stroke-width:1.2;stroke-linecap:butt;stroke-linejoin:miter;stroke:rgb(0%,0%,0%);stroke-opacity:1;stroke-miterlimit:10;" d="M 53.644531 191.6875 L 53.578125 214.472656 "/>
<path style="fill:none;stroke-width:1.2;stroke-linecap:butt;stroke-linejoin:miter;stroke:rgb(0%,0%,0%);stroke-opacity:1;stroke-miterlimit:10;" d="M 78.582031 138.265625 L 101.234375 140.710938 "/>
<path style="fill:none;stroke-width:1.2;stroke-linecap:butt;stroke-linejoin:miter;stroke:rgb(0%,0%,0%);stroke-opacity:1;stroke-miterlimit:10;" d="M 81.421875 133.179688 L 99.542969 135.136719 "/>
<path style="fill:none;stroke-width:1.2;stroke-linecap:butt;stroke-linejoin:miter;stroke:rgb(0%,0%,0%);stroke-opacity:1;stroke-miterlimit:10;" d="M 69.375 117.425781 L 78.582031 138.265625 "/>
<path style="fill:none;stroke-width:1.2;stroke-linecap:butt;stroke-linejoin:miter;stroke:rgb(0%,0%,0%);stroke-opacity:1;stroke-miterlimit:10;" d="M 101.234375 140.710938 L 114.679688 122.316406 "/>
<path style="fill:none;stroke-width:1.2;stroke-linecap:butt;stroke-linejoin:miter;stroke:rgb(0%,0%,0%);stroke-opacity:1;stroke-miterlimit:10;" d="M 114.679688 122.316406 L 105.472656 101.476562 "/>
<path style="fill:none;stroke-width:1.2;stroke-linecap:butt;stroke-linejoin:miter;stroke:rgb(0%,0%,0%);stroke-opacity:1;stroke-miterlimit:10;" d="M 108.855469 122.398438 L 101.488281 105.726562 "/>
<path style="fill:none;stroke-width:1.2;stroke-linecap:butt;stroke-linejoin:miter;stroke:rgb(0%,0%,0%);stroke-opacity:1;stroke-miterlimit:10;" d="M 114.679688 122.316406 L 137.332031 124.761719 "/>
<path style="fill:none;stroke-width:1.2;stroke-linecap:butt;stroke-linejoin:miter;stroke:rgb(0%,0%,0%);stroke-opacity:1;stroke-miterlimit:10;" d="M 105.472656 101.476562 L 82.820312 99.03125 "/>
<path style="fill:none;stroke-width:1.2;stroke-linecap:butt;stroke-linejoin:miter;stroke:rgb(0%,0%,0%);stroke-opacity:1;stroke-miterlimit:10;" d="M 82.820312 99.03125 L 69.375 117.425781 "/>
<path style="fill:none;stroke-width:1.2;stroke-linecap:butt;stroke-linejoin:miter;stroke:rgb(0%,0%,0%);stroke-opacity:1;stroke-miterlimit:10;" d="M 85.800781 104.03125 L 75.046875 118.75 "/>
<path style="fill:none;stroke-width:1.2;stroke-linecap:butt;stroke-linejoin:miter;stroke:rgb(0%,0%,0%);stroke-opacity:1;stroke-miterlimit:10;" d="M 137.332031 124.761719 L 146.539062 145.605469 "/>
<path style="fill:none;stroke-width:1.2;stroke-linecap:butt;stroke-linejoin:miter;stroke:rgb(0%,0%,0%);stroke-opacity:1;stroke-miterlimit:10;" d="M 143.15625 124.679688 L 150.519531 141.351562 "/>
<path style="fill:none;stroke-width:1.2;stroke-linecap:butt;stroke-linejoin:miter;stroke:rgb(0%,0%,0%);stroke-opacity:1;stroke-miterlimit:10;" d="M 150.777344 106.367188 L 137.332031 124.761719 "/>
<path style="fill:none;stroke-width:1.2;stroke-linecap:butt;stroke-linejoin:miter;stroke:rgb(0%,0%,0%);stroke-opacity:1;stroke-miterlimit:10;" d="M 146.539062 145.605469 L 169.191406 148.050781 "/>
<path style="fill:none;stroke-width:1.2;stroke-linecap:butt;stroke-linejoin:miter;stroke:rgb(0%,0%,0%);stroke-opacity:1;stroke-miterlimit:10;" d="M 169.191406 148.050781 L 182.636719 129.65625 "/>
<path style="fill:none;stroke-width:1.2;stroke-linecap:butt;stroke-linejoin:miter;stroke:rgb(0%,0%,0%);stroke-opacity:1;stroke-miterlimit:10;" d="M 166.207031 143.046875 L 176.964844 128.332031 "/>
<path style="fill:none;stroke-width:1.2;stroke-linecap:butt;stroke-linejoin:miter;stroke:rgb(0%,0%,0%);stroke-opacity:1;stroke-miterlimit:10;" d="M 182.636719 129.65625 L 173.429688 108.816406 "/>
<path style="fill:none;stroke-width:1.2;stroke-linecap:butt;stroke-linejoin:miter;stroke:rgb(0%,0%,0%);stroke-opacity:1;stroke-miterlimit:10;" d="M 182.636719 129.65625 L 205.289062 132.101562 "/>
<path style="fill:none;stroke-width:1.2;stroke-linecap:butt;stroke-linejoin:miter;stroke:rgb(0%,0%,0%);stroke-opacity:1;stroke-miterlimit:10;" d="M 173.429688 108.816406 L 150.777344 106.367188 "/>
<path style="fill:none;stroke-width:1.2;stroke-linecap:butt;stroke-linejoin:miter;stroke:rgb(0%,0%,0%);stroke-opacity:1;stroke-miterlimit:10;" d="M 170.585938 113.902344 L 152.464844 111.945312 "/>
<path style="fill:none;stroke-width:1.2;stroke-linecap:butt;stroke-linejoin:miter;stroke:rgb(0%,0%,0%);stroke-opacity:1;stroke-miterlimit:10;" d="M 150.777344 106.367188 L 141.566406 85.527344 "/>
<path style="fill:none;stroke-width:1.2;stroke-linecap:butt;stroke-linejoin:miter;stroke:rgb(0%,0%,0%);stroke-opacity:1;stroke-miterlimit:10;" d="M 207.453125 133.683594 L 214.175781 124.488281 "/>
<path style="fill:none;stroke-width:1.2;stroke-linecap:butt;stroke-linejoin:miter;stroke:rgb(100%,0%,0%);stroke-opacity:1;stroke-miterlimit:10;" d="M 214.175781 124.488281 L 220.898438 115.289062 "/>
<path style="fill:none;stroke-width:1.2;stroke-linecap:butt;stroke-linejoin:miter;stroke:rgb(0%,0%,0%);stroke-opacity:1;stroke-miterlimit:10;" d="M 203.125 130.519531 L 209.847656 121.324219 "/>
<path style="fill:none;stroke-width:1.2;stroke-linecap:butt;stroke-linejoin:miter;stroke:rgb(100%,0%,0%);stroke-opacity:1;stroke-miterlimit:10;" d="M 209.847656 121.324219 L 216.570312 112.125 "/>
<path style="fill:none;stroke-width:1.2;stroke-linecap:butt;stroke-linejoin:miter;stroke:rgb(0%,0%,0%);stroke-opacity:1;stroke-miterlimit:10;" d="M 205.289062 132.101562 L 209.890625 142.523438 "/>
<path style="fill:none;stroke-width:1.2;stroke-linecap:butt;stroke-linejoin:miter;stroke:rgb(0%,0%,100%);stroke-opacity:1;stroke-miterlimit:10;" d="M 209.890625 142.523438 L 214.496094 152.941406 "/>
<path style=" stroke:none;fill-rule:nonzero;fill:rgb(100%,100%,100%);fill-opacity:1;" d="M 214.734375 108.207031 L 222.734375 108.207031 L 222.734375 119.207031 L 214.734375 119.207031 Z M 214.734375 108.207031 "/>
<g style="fill:rgb(100%,0%,0%);fill-opacity:1;">
  <use xlink:href="#glyph0-1" x="214.734375" y="116.870117"/>
</g>
<path style="fill:none;stroke-width:1.2;stroke-linecap:butt;stroke-linejoin:miter;stroke:rgb(0%,0%,100%);stroke-opacity:1;stroke-miterlimit:10;" d="M 214.496094 152.941406 L 225.820312 154.167969 "/>
<path style="fill:none;stroke-width:1.2;stroke-linecap:butt;stroke-linejoin:miter;stroke:rgb(0%,0%,0%);stroke-opacity:1;stroke-miterlimit:10;" d="M 225.820312 154.167969 L 237.148438 155.390625 "/>
<path style=" stroke:none;fill-rule:nonzero;fill:rgb(100%,100%,100%);fill-opacity:1;" d="M 207.496094 147.441406 L 221.496094 147.441406 L 221.496094 158.441406 L 207.496094 158.441406 Z M 207.496094 147.441406 "/>
<g style="fill:rgb(0%,0%,100%);fill-opacity:1;">
  <use xlink:href="#glyph0-2" x="207.496094" y="156.104492"/>
  <use xlink:href="#glyph0-3" x="214.473633" y="156.104492"/>
</g>
<path style="fill:none;stroke-width:1.2;stroke-linecap:butt;stroke-linejoin:miter;stroke:rgb(0%,0%,0%);stroke-opacity:1;stroke-miterlimit:10;" d="M 237.148438 155.390625 L 246.355469 176.230469 "/>
<path style="fill:none;stroke-width:1.2;stroke-linecap:butt;stroke-linejoin:miter;stroke:rgb(0%,0%,0%);stroke-opacity:1;stroke-miterlimit:10;" d="M 246.355469 176.230469 L 264.75 189.675781 "/>
<path style="fill:none;stroke-width:1.2;stroke-linecap:butt;stroke-linejoin:miter;stroke:rgb(0%,0%,0%);stroke-opacity:1;stroke-miterlimit:10;" d="M 243.910156 198.882812 L 246.355469 176.230469 "/>
<path style="fill:none;stroke-width:1.2;stroke-linecap:butt;stroke-linejoin:miter;stroke:rgb(0%,0%,0%);stroke-opacity:1;stroke-miterlimit:10;" d="M 264.75 189.675781 L 243.910156 198.882812 "/>
</g>
</svg>

<svg xmlns="http://www.w3.org/2000/svg" xmlns:xlink="http://www.w3.org/1999/xlink" width="300pt" height="300pt" viewBox="0 0 300 300"><defs><symbol overflow="visible"><path d="M.453 1.594v-7.938h4.5v7.938zm.5-.5h3.5v-6.938h-3.5zm0 0"/></symbol><symbol overflow="visible" id="a"><path d="M3.547-5.953c-.65 0-1.164.242-1.547.72-.375.48-.563 1.13-.563 1.952 0 .835.188 1.49.563 1.967.383.48.898.72 1.547.72.644 0 1.156-.24 1.53-.72.376-.476.564-1.132.564-1.968 0-.822-.187-1.474-.562-1.954-.375-.477-.887-.72-1.53-.72zm0-.734c.914 0 1.648.312 2.203.937.55.617.828 1.438.828 2.47 0 1.042-.277 1.87-.828 2.483-.555.617-1.29.922-2.203.922-.93 0-1.668-.305-2.22-.922C.774-1.41.5-2.237.5-3.28c0-1.033.273-1.853.828-2.47.55-.625 1.29-.938 2.22-.938zm0 0"/></symbol><symbol overflow="visible" id="b"><path d="M.89-6.563H2.08l2.906 5.485v-5.484h.86V0H4.656L1.75-5.484V0H.89zm0 0"/></symbol><symbol overflow="visible" id="c"><path d="M.89-6.563h.876v2.688H5v-2.688h.89V0H5v-3.125H1.766V0H.89zm0 0"/></symbol></defs><g><path fill="#fff" d="M0 0h300v300H0z"/><path d="M72.117 178.348l-3.492-10.844" stroke-width="1.2" stroke="#f00" stroke-miterlimit="10" fill="none"/><path d="M68.625 167.504l-3.488-10.844M53.645 191.688l9.234-6.668" stroke-width="1.2" stroke="#000" stroke-miterlimit="10" fill="none"/><path d="M62.88 185.02l9.237-6.672" stroke-width="1.2" stroke="#f00" stroke-miterlimit="10" fill="none"/><path d="M68.117 172.848h8v11h-8zm0 0" fill="#fff"/><use xlink:href="#a" x="68.117" y="181.511" fill="#f00"/><path d="M65.137 156.66l-11.39-.035" stroke-width="1.2" stroke="#000" stroke-miterlimit="10" fill="none"/><path d="M53.746 156.625l-11.394-.03" stroke-width="1.2" stroke="#00f" stroke-miterlimit="10" fill="none"/><path d="M62.844 162.016l-9.114-.028" stroke-width="1.2" stroke="#000" stroke-miterlimit="10" fill="none"/><path d="M53.73 161.988l-9.113-.027" stroke-width="1.2" stroke="#00f" stroke-miterlimit="10" fill="none"/><path d="M65.137 156.66l13.445-18.394" stroke-width="1.2" stroke="#000" stroke-miterlimit="10" fill="none"/><path d="M42.352 156.594l-7.102 21.648" stroke-width="1.2" stroke="#00f" stroke-miterlimit="10" fill="none"/><path d="M39.352 151.094h7v11h-7zm0 0" fill="#fff"/><use xlink:href="#b" x="39.352" y="159.757" fill="#00f"/><path d="M35.25 178.242l9.195 6.723" stroke-width="1.2" stroke="#00f" stroke-miterlimit="10" fill="none"/><path d="M44.445 184.965l9.2 6.722" stroke-width="1.2" stroke="#000" stroke-miterlimit="10" fill="none"/><path d="M40.254 175.258l7.355 5.38" stroke-width="1.2" stroke="#00f" stroke-miterlimit="10" fill="none"/><path d="M47.61 180.637l7.36 5.38" stroke-width="1.2" stroke="#000" stroke-miterlimit="10" fill="none"/><path d="M32.25 172.742h7v11h-7zm0 0" fill="#fff"/><use xlink:href="#b" x="32.25" y="181.405" fill="#00f"/><path d="M53.645 191.688l-.067 22.785M78.582 138.266l22.652 2.445M81.422 133.18l18.12 1.957M69.375 117.426l9.207 20.84M101.234 140.71l13.446-18.394M114.68 122.316l-9.207-20.84M108.855 122.398l-7.367-16.67M114.68 122.316l22.652 2.446M105.473 101.477L82.82 99.03M82.82 99.03l-13.445 18.396M85.8 104.03l-10.753 14.72M137.332 124.762l9.207 20.843M143.156 124.68l7.364 16.672M150.777 106.367l-13.445 18.395M146.54 145.605l22.65 2.446M169.19 148.05l13.447-18.394M166.207 143.047l10.758-14.715M182.637 129.656l-9.207-20.84M182.637 129.656l22.652 2.446M173.43 108.816l-22.653-2.45M170.586 113.902l-18.12-1.957M150.777 106.367l-9.21-20.84M207.453 133.684l6.723-9.196" stroke-width="1.2" stroke="#000" stroke-miterlimit="10" fill="none"/><path d="M214.176 124.488l6.722-9.2" stroke-width="1.2" stroke="#f00" stroke-miterlimit="10" fill="none"/><path d="M203.125 130.52l6.723-9.196" stroke-width="1.2" stroke="#000" stroke-miterlimit="10" fill="none"/><path d="M209.848 121.324l6.722-9.2" stroke-width="1.2" stroke="#f00" stroke-miterlimit="10" fill="none"/><path d="M205.29 132.102l4.6 10.42" stroke-width="1.2" stroke="#000" stroke-miterlimit="10" fill="none"/><path d="M209.89 142.523l4.606 10.418" stroke-width="1.2" stroke="#00f" stroke-miterlimit="10" fill="none"/><path d="M214.734 108.207h8v11h-8zm0 0" fill="#fff"/><use xlink:href="#a" x="214.734" y="116.87" fill="#f00"/><path d="M214.496 152.94l11.324 1.228" stroke-width="1.2" stroke="#00f" stroke-miterlimit="10" fill="none"/><path d="M225.82 154.168l11.328 1.223" stroke-width="1.2" stroke="#000" stroke-miterlimit="10" fill="none"/><path d="M207.496 147.44h14v11h-14zm0 0" fill="#fff"/><g fill="#00f"><use xlink:href="#b" x="207.496" y="156.104"/><use xlink:href="#c" x="214.474" y="156.104"/></g><path d="M237.148 155.39l9.207 20.84M246.355 176.23l18.395 13.446M243.91 198.883l2.445-22.653M264.75 189.676l-20.84 9.207" stroke-width="1.2" stroke="#000" stroke-miterlimit="10" fill="none"/></g></svg>
